X:1
T:Title
%%score { ( 1 3 ) | ( 2 4 ) }
L:1/8
M:4/4
K:A
V:1 treble nm="Grand Piano"
V:3 treble 
V:2 bass 
V:4 bass 
V:1
 z4 z2[Q:1/4=92] F2 | F2 =G2 A2 z F | [=G,DE]2 [G,CE]2 [F,D]2[K:treble] [^G,DF]2 | %3
 .[A,CE]2 .[CDA]2 [B,EA]2 [B,DG]2 |[M:3/4] [A,A]4 [A,CA]2 |[M:1/4] [CA]2 |[M:4/4] z4 z2 A2 | %7
 AD E2 .F2 [CA]2 | .[DG]2 .[F,A,F]2 [G,CF]2 [G,C^E]2 | [CF]4 z4 | [C=G]2 [DF]2 [=G,CE]2 [F,D]2 | %11
 [A,DF]2 .[A,CE]2 [A,CE]2 [CB]2 | [DA]2 [C=G]2 [CF]2 [A,CE]2 | [A,E=G]2 [A,DF]2 z2 [DFA]2 | %14
 [Fd]2 [DFc]2 [DFB]2 [C^Ec]2 |[M:3/4] z2 [^EG]2 z2 |[M:1/4] c2 |[M:4/4] B2 A2 z4 | .F2 z2 A4 | %19
 z2 [DA]2 [DB]2 [Ec]2 | [Fd]6 z2 | z2 [F,CF]2 [=G,CF]2[K:bass] [G,CE]2 |[M:3/4] [F,D]6 |] %23
V:2
 z4 z2 [D,A,D]2 | [D,A,D]2 [E,A,C]2 [F,A,D]2 [D,A,]2 | A,,2 A,,2 D,C, B,,2 | z B, z D E,2 E,2 | %4
[M:3/4] z2 CB, A,,2 |[M:1/4] A,2 |[M:4/4] .[F,A,D]2 [E,=G,C]2 [D,A,D]2 [A,E]2 | %7
 .[F,A,D]2 [E,=G,C]2 .[D,A,D]2 [A,,F,]2 | z G, z B, C,2 C,2 | z2 A,G, .F,,2 [A,,F,]2 | %10
 [A,,E,]2 [A,,D,]2 A,,2 A,,2 | A,,2 z B, A,,2 [A,,=G,]2 | [A,,F,]2 [A,,E,]2 [A,,D,]2 A,,2 | %13
 C,2 D,2 z2 D,2 | B,2 A,2 G,2 C,2 |[M:3/4] F,A, CB, A,G, |[M:1/4] [A,C]2 | %17
[M:4/4] D,B,,C,D, z C z E | z CDB, z D C2 | z2 [A,,F,]2 [A,,^E,]2 [^A,,F,]2 | [B,,F,]6 z2 | %21
 z2 ^A,,2 =A,,2 A,,2 |[M:3/4] D,6 |] %23
V:3
 x8 | z4 z2 D2 | x6[K:treble] x2 | x8 |[M:3/4] D2 z2 z2 |[M:1/4] z =G, |[M:4/4] AD E2 F2 z =G, | %7
 x8 | x8 | B,2 z2 .[A,CF]2 [CA]2 | x8 | x8 | x8 | x8 | x8 |[M:3/4] [CFA]2 z D [CF]2 |[M:1/4] z E, | %17
[M:4/4] FDEF .[B,A]2 .[DG]2 | [A,A]4 .E2 z2 | x8 | x8 | x6[K:bass] x2 |[M:3/4] x6 |] %23
V:4
 x8 | x8 | x8 | C,2 F,2 z4 |[M:3/4] A,,4 z2 |[M:1/4] x2 |[M:4/4] x8 | x8 | [B,,F,]2 D,2 z4 | %9
 F,,4 z4 | x8 | z2 A,,2 z4 | x8 | x8 | x8 |[M:3/4] x6 |[M:1/4] F, z |[M:4/4] F,2 F,2 E,2 E,2 | %18
 A,,4 A,4 | x8 | x8 | x8 |[M:3/4] x6 |] %23

